static/assets/images/icons/to-left-thin.svg

<svg width="256" height="256" viewBox="0 0 256 256" fill="none" xmlns="http://www.w3.org/2000/svg">
<path fill-rule="evenodd" clip-rule="evenodd" d="M233 127.5C233 129.49 232.21 131.398 230.803 132.804C229.397 134.211 227.489 135.002 225.5 135.002H48.5L98 181.512C99.5913 183.103 100.485 185.262 100.485 187.513C100.485 189.764 99.5913 191.923 98 193.514C96.4087 195.106 94.2504 196 92 196C89.7496 196 87.5913 195.106 86 193.514L26 133.501C25.0685 132.803 24.3125 131.896 23.7918 130.855C23.2711 129.813 23 128.665 23 127.5C23 126.335 23.2711 125.187 23.7918 124.145C24.3125 123.104 25.0685 122.197 26 121.499L86 61.4858C87.5913 59.8942 89.7496 59 92 59C94.2504 59 96.4087 59.8942 98 61.4858C99.5913 63.0775 100.485 65.2362 100.485 67.4871C100.485 69.738 99.5913 71.8967 98 73.4884L50 119.998H225.5C227.489 119.998 229.397 120.789 230.803 122.196C232.21 123.602 233 125.51 233 127.5Z" fill="black"/>
</svg>

<svg xmlns="http://www.w3.org/2000/svg" fill="none" viewBox="0 0 256 256"><path fill="#000" fill-rule="evenodd" d="M233 127.5c0 1.99-.79 3.898-2.197 5.304a7.5 7.5 0 0 1-5.303 2.198h-177l49.5 46.51a8.486 8.486 0 0 1-12 12.002l-60-60.013a7.5 7.5 0 0 1-2.208-9.356A7.5 7.5 0 0 1 26 121.499l60-60.013a8.485 8.485 0 0 1 14.485 6.001c0 2.251-.894 4.41-2.485 6.001l-48 46.51h175.5c1.989 0 3.897.791 5.303 2.198A7.5 7.5 0 0 1 233 127.5" clip-rule="evenodd"/></svg>
